icon-themes/sifr_svg/cmd/sc_view100.svg

<svg viewBox="0 0 16 16" xmlns="http://www.w3.org/2000/svg"><path d="m3.1875 2c-.6627 0-1.1875.54899-1.1875 1.21875v9.5625c0 .66976.5248 1.21875 1.1875 1.21875h9.625c.6627 0 1.1875-.54899 1.1875-1.21875v-9.5625c0-.66976-.5248-1.21875-1.1875-1.21875zm3.8125 3h2v6h-2v-4h-1v-1c.69433 0 1-.34772 1-1z" fill="#555753"/></svg>

<svg xmlns="http://www.w3.org/2000/svg" viewBox="0 0 16 16">
  <path
     style="fill:#555753"
     d="M 3.1875 2 C 2.5248 2 2 2.54899 2 3.21875 L 2 12.78125 C 2 13.45101 2.5248 14 3.1875 14 L 12.8125 14 C 13.4752 14 14 13.45101 14 12.78125 L 14 3.21875 C 14 2.54899 13.4752 2 12.8125 2 L 3.1875 2 z M 7 5 L 9 5 L 9 11 L 7 11 L 7 7 L 6 7 L 6 6 C 6.69433 6 7 5.65228 7 5 z "
     />
</svg>
